src/assets/images/icons/history-line.svg

<svg xmlns="http://www.w3.org/2000/svg" width="24" height="24" fill="none" viewBox="0 0 24 24"><g clip-path="url(#a)"><path fill="#181d27" d="M12 2c5.523 0 10 4.477 10 10s-4.477 10-10 10S2 17.523 2 12h2a8 8 0 1 0 1.385-4.5H8v2H2v-6h2V6a9.98 9.98 0 0 1 8-4m1 5v4.585l3.243 3.243-1.415 1.415L11 12.413V7z"/></g><defs><clipPath id="a"><path fill="#fff" d="M0 0h24v24H0z"/></clipPath></defs></svg>

<svg width="24" height="24" viewBox="0 0 24 24" fill="none" xmlns="http://www.w3.org/2000/svg">
<g clip-path="url(#clip0_58_16564)">
<path d="M12 2C17.523 2 22 6.477 22 12C22 17.523 17.523 22 12 22C6.477 22 2 17.523 2 12H4C4 16.418 7.582 20 12 20C16.418 20 20 16.418 20 12C20 7.582 16.418 4 12 4C9.25 4 6.824 5.387 5.385 7.5H8V9.5H2V3.5H4V6C5.824 3.57 8.729 2 12 2ZM13 7V11.585L16.243 14.828L14.828 16.243L11 12.413V7H13Z" fill="#181D27"/>
</g>
<defs>
<clipPath id="clip0_58_16564">
<rect width="24" height="24" fill="white"/>
</clipPath>
</defs>
</svg>
